app/dist/common/images/northern-uranium-ltd.svg

<svg height="18" viewBox="0 0 18 18" width="18" xmlns="http://www.w3.org/2000/svg"><path d="m0 0h18v18h-18z" fill="#f0f3fa"/><path d="m4 6.3v5.34l3 1.36v-4.43s-2.11-1.51-3-2.26z" fill="#58add0"/><path d="m9.19 10.79-2.19 2.2v-4.43l2.19 2.22zm1.81-5.79-2 2.24 2 2.2z" fill="#3f68ae"/><path d="m14 6.33-3-1.31v4.46l3 2.19z" fill="#aacc54"/><path d="m11.54 12.98-7.54-6.67 2.5-1.31 7.5 6.67z" fill="#77b698"/></svg>

<!-- by TradingView --><svg width="18" height="18" viewBox="0 0 18 18" xmlns="http://www.w3.org/2000/svg"><path fill="#F0F3FA" d="M0 0h18v18H0z"/><path d="M4 6.3v5.34L7 13V8.57S4.89 7.06 4 6.31Z" fill="#58ADD0"/><path d="M9.19 10.79 7 12.99V8.56l2.19 2.22ZM11 5 9 7.24l2 2.2V5Z" fill="#3F68AE"/><path d="m14 6.33-3-1.31v4.46l3 2.19V6.33Z" fill="#AACC54"/><path d="M11.54 12.98 4 6.31 6.5 5l7.5 6.67-2.46 1.31Z" fill="#77B698"/></svg>
